X:1
T:Accept Him Today
T:Melvin J. Hill
T:Accept Him Today
T:Public Domain
T:Public Domain
T:Public Domain
C:Melvin J. Hill
Z:Public Domain
%%score ( 1 2 ) ( 3 4 )
L:1/8
M:6/8
K:Ab
V:1 treble 
V:2 treble 
V:3 bass 
V:4 bass 
V:1
 [CE] | [CE]>[=B,=D][CE] [FA][EG][_DF] | [CE][DF][CE] [A,C]2 [CE] | %3
w: 1.~O|bro- ther, the mil- lions are|dy- ing in sin, They|
w: 2.~No|more in the wild- er- ness,|sad and a- fraid, Thy|
w: 3.~Come,|en- ter the bat- tle, will|full ar- mor on, With|
 [B,E]>[G,B,][G,B,] [G,B,][DF][CE] | [A,C]3- [A,C]2 [CE] | [CE]>[=B,=D][CE] [FA][EG][_DF] | %6
w: wan- der in dark- ness and|night; * O|heed thou God’s mes- sage, His|
w: wea- ry ex- ist- ence pro-|long; * But|cross o- ver Jor- dan, thy|
w: vic- tory as- sured o’er the|foe; * The|power of the Spir- it, a-|
 [CE][DF][A,C] [CE]2 [CE] | [B,E]>[B,=D][B,E] [B,F][B,G][B,F] | [B,E]3- [B,E]2 ||"^Refrain" [DE] | %10
w: full- ness re- ceive, And|car- ry thy bro- ther the|light. *|Ac-|
w: rich- es pos- sess, And|sigh- ing shall turn in- to|song. *||
w: bid- ing with- in, Gives|vic- tory wher- ev- er you|go. *||
 (EFG [Ac])[GB][Ac] | (EGA [Bd]2) E | (EGA [Bd])[Ac][Bd] | (cAF E)[Ee] | %14
w: cept * * * Him to-|no * * * long-|lay, * * * The Com-|er * * * glad-|
w: ||||
w: ||||
 [F=d]>[Ac][GB] [=DA][DF][DB] | [D-B]3 [DE]2 E | (EFG [Ac])[GB][Ac] | (EGA [Bd]2) E | %18
w: re- ceive; He waits for thy|call; * give|ver * * * thy all,|on- * * * ly|
w: ||||
w: ||||
 (EGA [Bd])[Ac][Bd] | (cAF [Ee]2) [Ec] | [Ee]4 [Ed][Ec] | (B2 c [Fd]2) [Af] | %22
w: ’Tis * * * on- ly|ask * * * and|* lieve. *||
w: ||||
w: ||||
 [Ae]>[Gd][Ec] [EB][Ec][EB] | [EA]3- [EA]2 |] %24
w: ||
w: ||
w: ||
V:2
 x | x6 | x6 | x6 | x6 | x6 | x6 | x6 | x5 || x | c3- x3 | d3- x E x | d3- x3 | e3- e2 | x6 | %15
w: ||||||||||day;|er de-|fort-|ly *||
 x5 E | c2- x4 | d3- x E x | d3- x3 | e3- x3 | x6 | F3- x3 | x6 | x5 |] %24
w: o-|’Tis|to ask,|to|be-|||||
V:3
 C | C>=B,C FED | CDC A,2 C | B,>G,G, G,DC | [A,,A,]3- [A,,A,]2 C | C>=B,C FED | CDA, C2 C | %7
w: ~|~ ~ ~ ~ ~ ~|~ ~ ~ ~ ~|~ ~ ~ ~ ~ ~|~ * ~|~ ~ ~ ~ ~ ~|~ ~ ~ ~ Ac-|
 B,>B,B, B,B,B, | [E,G,B,]3- [E,G,B,]2 || [E,D] | [A,,C][A,,A,][A,,E,] [A,,E,]2 [A,,E,] | %11
w: to- day, No long- er de-|cept *|Him|to- day, No long- er|
 [E,B,][E,B,][E,A,] [E,G,]2 [E,G,] | [E,B,][E,B,][E,A,] (G,A,)[E,G,] | A,[A,C][A,D] [A,C][A,C] | %14
w: de- lay, ~ ~ ~|~ ~ ~ ~ * ~|waits for thy call, Give|
 [B,,B,]>[B,,B,][B,,B,] [B,,F,][B,,A,][B,,A,] | [E,-G,]3 [E,B,]2 [E,D] | %16
w: ver thy all, He waits for|thy * call,|
 [A,,C][A,,A,][A,,E,] [A,,E,]2 [A,,E,] | [E,B,][E,B,][E,A,] [E,G,]2 [E,G,] | %18
w: Give o- ver thy all,|’Tis on- ly to ask,|
 [E,B,][E,B,][E,A,] [E,G,]2 [E,G,] | A,[A,C][A,D] [A,C]2 [A,C] | [A,C][A,C][A,C] ([A,C][G,B,])A, | %21
w: |||
 [D,D]2 [C,=A,] [B,,B,]2 [D,_A,] | [E,C]>[E,B,][E,A,] [E,G,][E,A,][E,D] | [A,C]3- [A,C]2 |] %24
w: |||
V:4
 x | A,,3 [A,,A,]3 | A,,3 [A,,E,]3 | E,,3 E,3 | x6 | A,,3 [A,,A,]3 | A,,3 [A,,E,]3 | %7
w: |~ ~|~ ~|~ ~||~ ~|cept Him|
 B,,2 [B,,A,]3 x | x5 || x | x6 | x6 | x3 E,2 x | A, x4 | x6 | x6 | x6 | x6 | x6 | A, x5 | x5 A, | %21
w: lay, Ac-|||||~|o-||||||||
 x6 | x6 | x5 |] %24
w: |||

